X: 177
T: Jie shunshun
L: 1/16
M: 2/4
K: D
f2 f e d2 B d [I:setbarnb 1]| 
e2 F2E4 | 
f2 f e d2 B d | 
d2 F2E4 | 
e2 e2 f2 e d | 
A2 B A2< D2 E | 
A2 A B d2 F2 | 
E2 F ED4 |]

@@@ Tune index: 9051
